!!!SOCIAL_FUNCTION:	songs of principal social dances with corn dance
!!!PDT:	1956
!!!OTL: No_74_Baby_Alligator_Dance_Song_(a).krn
!!!LANG: Non-Tone
!!!LING_GROUP: Muskogean
!!!REG: Florida
**kern
*staff1
=1-
*clefF4
*k[f#]
*M2/4
8r
16B\LL
16B\JJ
4B\
=2
8.d\L
16B\Jk
8.d\L
16d\Jk
=3
(12B\L
12A\)
12G\J
8G\
8r
=4
8.G\L
16G\Jk
8.B\L
16d\Jk
=5||
*M3/8
12B\L
12A\
12G\J
8G\
=6
=
*M2/4
8.d;\L
16d\Jk
8B\L
16c\L
16B\JJ
=7
8.A\L
16G\Jk
8G\L
[8E\J
=8
8E\]
8r
8.E\L
16E\Jk
=9
4G\
4G\
=10
8.G\L
16B\Jk
16B\LL
16B\J
8A\J
=11
16G\LL
16G\J
8G\J
4G\
=12||
*M3/4
4r
8.E\L
16E\Jk
4G\
==:|!
*-
